shader_type canvas_item;

// The MIT License
// Copyright © 2013 Inigo Quilez
// https://www.youtube.com/c/InigoQuilez
// https://iquilezles.org/
// Permission is hereby granted, free of charge, to any person obtaining a copy of this software and associated documentation files (the "Software"), to deal in the Software without restriction, including without limitation the rights to use, copy, modify, merge, publish, distribute, sublicense, and/or sell copies of the Software, and to permit persons to whom the Software is furnished to do so, subject to the following conditions: The above copyright notice and this permission notice shall be included in all copies or substantial portions of the Software. THE SOFTWARE IS PROVIDED "AS IS", WITHOUT WARRANTY OF ANY KIND, EXPRESS OR IMPLIED, INCLUDING BUT NOT LIMITED TO THE WARRANTIES OF MERCHANTABILITY, FITNESS FOR A PARTICULAR PURPOSE AND NONINFRINGEMENT. IN NO EVENT SHALL THE AUTHORS OR COPYRIGHT HOLDERS BE LIABLE FOR ANY CLAIM, DAMAGES OR OTHER LIABILITY, WHETHER IN AN ACTION OF CONTRACT, TORT OR OTHERWISE, ARISING FROM, OUT OF OR IN CONNECTION WITH THE SOFTWARE OR THE USE OR OTHER DEALINGS IN THE SOFTWARE.

// I've not seen anybody out there computing correct cell interior distances for Voronoi
// patterns yet. That's why they cannot shade the cell interior correctly, and why you've
// never seen cell boundaries rendered correctly. 
//
// However, here's how you do mathematically correct distances (note the equidistant and non
// degenerated grey isolines inside the cells) and hence edges (in yellow):
//
// https://iquilezles.org/articles/voronoilines
//
// More Voronoi shaders:
//
// Exact edges:  https://www.shadertoy.com/view/ldl3W8
// Hierarchical: https://www.shadertoy.com/view/Xll3zX
// Smooth:       https://www.shadertoy.com/view/ldB3zc
// Voronoise:    https://www.shadertoy.com/view/Xd23Dh

#define ANIMATE

vec2 hash2( vec2 p )
{
    // procedural white noise	
	return fract(sin(vec2(dot(p,vec2(127.1,311.7)),dot(p,vec2(269.5,183.3))))*43758.5453);
}

vec3 voronoi( in vec2 x )
{
    vec2 n = floor(x);
    vec2 f = fract(x);

    //----------------------------------
    // first pass: regular voronoi
    //----------------------------------
	vec2 mg, mr;

    float md = 8.0;
    for( int j=-1; j<=1; j++ )
    for( int i=-1; i<=1; i++ )
    {
        vec2 g = vec2(float(i),float(j));
		vec2 o = hash2( n + g );
		#ifdef ANIMATE
        o = 0.5 + 0.5*sin( TIME + 6.2831*o );
        #endif	
        vec2 r = g + o - f;
        float d = dot(r,r);

        if( d<md )
        {
            md = d;
            mr = r;
            mg = g;
        }
    }

    //----------------------------------
    // second pass: distance to borders
    //----------------------------------
    md = 8.0;
    for( int j=-2; j<=2; j++ )
    for( int i=-2; i<=2; i++ )
    {
        vec2 g = mg + vec2(float(i),float(j));
		vec2 o = hash2( n + g );
		#ifdef ANIMATE
        o = 0.5 + 0.5*sin( TIME + 6.2831*o );
        #endif	
        vec2 r = g + o - f;

        if( dot(mr-r,mr-r)>0.00001 )
        md = min( md, dot( 0.5*(mr+r), normalize(r-mr) ) );
    }

    return vec3( md, mr );
}

void mainImage( out vec4 fragColor, in vec2 uv )
{
	vec2 p = uv;

    vec3 c = voronoi( 8.0*p );

	// isolines
    vec3 col = c.x*(0.5 + 0.5*sin(64.0*c.x))*vec3(1.0);
    // borders	
    col = mix( vec3(1.0,0.6,0.0), col, smoothstep( 0.04, 0.07, c.x ) );
    // feature points
	float dd = length( c.yz );
	col = mix( vec3(1.0,0.6,0.1), col, smoothstep( 0.0, 0.12, dd) );
	col += vec3(1.0,0.6,0.1)*(1.0-smoothstep( 0.0, 0.04, dd));

	fragColor = vec4(col,1.0);
}

void fragment() {
	COLOR.r = 1.0;
	COLOR.g = 0.0;
	
	vec4 color;
	
	vec2 fragCoord = FRAGCOORD.xy;
	vec2 resolution = 1. / SCREEN_PIXEL_SIZE.xy;
	vec2 uv = (2. * fragCoord - resolution.xy) / min(resolution.x, resolution.y);
	
	mainImage(color, uv);
	
	
	COLOR = color;
}
